packages/kaspersky-hexa-ui-icons/src/iconsSVGs/16x12/FlagGw.svg

<svg width="16" height="12" viewBox="0 0 16 12" fill="none" xmlns="http://www.w3.org/2000/svg">
<g clip-path="url(#clip0_41813_2478)">
<mask id="mask0_41813_2478" style="mask-type:luminance" maskUnits="userSpaceOnUse" x="0" y="0" width="16" height="12">
<rect width="16" height="12" rx="2" fill="white"/>
</mask>
<g mask="url(#mask0_41813_2478)">
<path fill-rule="evenodd" clip-rule="evenodd" d="M0 12H16V5.60001H0V12Z" fill="#1AB558"/>
<path fill-rule="evenodd" clip-rule="evenodd" d="M0 5.6H16V0H0V5.6Z" fill="#FFD952"/>
<path fill-rule="evenodd" clip-rule="evenodd" d="M0 12H6.09524V0H0V12Z" fill="#E72B42"/>
<path fill-rule="evenodd" clip-rule="evenodd" d="M3.04758 6.76702L1.92799 7.61803L2.35285 6.23702L1.23605 5.38197L2.61821 5.37947L3.04758 4L3.47696 5.37947L4.85912 5.38197L3.74232 6.23702L4.16717 7.61803L3.04758 6.76702Z" fill="#262626"/>
</g>
</g>
<defs>
<clipPath id="clip0_41813_2478">
<rect width="16" height="12" fill="white"/>
</clipPath>
</defs>
</svg>

<svg xmlns="http://www.w3.org/2000/svg" width="16" height="12" fill="none" viewBox="0 0 16 12"><g clip-path="url(#a)"><mask id="b" width="16" height="12" x="0" y="0" maskUnits="userSpaceOnUse" style="mask-type:luminance"><rect width="16" height="12" fill="#fff" rx="2"/></mask><g fill-rule="evenodd" clip-rule="evenodd" mask="url(#b)"><path fill="#1ab558" d="M0 12h16V5.6H0z"/><path fill="#ffd952" d="M0 5.6h16V0H0z"/><path fill="#e72b42" d="M0 12h6.0952V0H0z"/><path fill="#262626" d="m3.0476 6.767-1.1196.851.4249-1.381-1.1168-.855 1.3821-.0025L3.0476 4l.4294 1.3795 1.3821.0025-1.1168.855.4249 1.381z"/></g></g><defs><clipPath id="a"><path fill="#fff" d="M0 0h16v12H0z"/></clipPath></defs></svg>
